X:1
T:Title
L:1/8
Q:1/4=100
M:4/4
K:F
V:1 treble nm="Grand Piano"
V:1
 A2 F2 G2 A2 | d3 c B2 B2 | G3 G ccBB | A8 | A3 A B2 A2 | A3 G/^F/ G4 | E3 E EE A>G | A8 | %8
w: ????~????~???? * * *||||||||
 A3 A A2 c2 | B3 A G2 G2 | G3 G GGBA | F8 | F2 G2 A2 B2 | A3 A E4 | E4- EFEF | E4 E4 | %16
w: ||||||||
 A2 F2 G2 A2 | d3 c B2 B2 | G3 G ccBB | A8 | A3 A B2 A2 | A3 G/^F/ G4 | E3 E EE A>G |[M:2/4] A4 | %24
w: ||||||||
 z A BA | A3 G/^F/ | G2 GA | G2 FE | F4 | EF EF | EF EF | D4 |] %32
w: ||||||||

